;FLAVOR:Marlin
;TIME:11691
;Filament used: 6.205m
;Layer height: 0.2
;MINX:72.7
;MINY:76.7
;MINZ:0.2
;MAXX:147.3
;MAXY:143.3
;MAXZ:11
;Generated with Cura_SteamEngine 4.4.1
M140 S60
M105
M190 S60
M104 S200
M105
M109 S200
M82 ;absolute extrusion mode
M201 X500.00 Y500.00 Z100.00 E5000.00 ;Setup machine max acceleration
M203 X500.00 Y500.00 Z10.00 E50.00 ;Setup machine max feedrate
M204 P500.00 R1000.00 T500.00 ;Setup Print/Retract/Travel acceleration
M205 X8.00 Y8.00 Z0.40 E5.00 ;Setup Jerk
M220 S100 ;Reset Feedrate
M221 S100 ;Reset Flowrate

G28 ;Home

G92 E0 ;Reset Extruder
G1 Z2.0 F3000 ;Move Z Axis up
G1 X10.1 Y20 Z0.28 F5000.0 ;Move to start position
G1 X10.1 Y200.0 Z0.28 F1500.0 E15 ;Draw the first line
G1 X10.4 Y200.0 Z0.28 F5000.0 ;Move to side a little
G1 X10.4 Y20 Z0.28 F1500.0 E30 ;Draw the second line
G92 E0 ;Reset Extruder
G1 Z2.0 F3000 ;Move Z Axis up

G92 E0
G92 E0
G1 F1500 E-6.5
;LAYER_COUNT:55
;LAYER:0
M107
G0 F6000 X118.798 Y77.553 Z0.2
;TYPE:SKIRT
G1 F1500 E0
G1 F1200 X118.977 Y77.344 E0.00915
G1 X119.094 Y77.227 E0.01466
G1 X119.389 Y76.989 E0.02726
G1 X119.727 Y76.818 E0.03986
G1 X120.093 Y76.721 E0.05245
G1 X120.367 Y76.7 E0.06159
G1 X130.133 Y76.7 E0.38641
G1 X130.51 Y76.74 E0.39902
G1 X130.87 Y76.858 E0.41162
G1 X131.197 Y77.048 E0.4242
G1 X131.406 Y77.227 E0.43335
G1 X131.523 Y77.344 E0.43886
G1 X131.761 Y77.639 E0.45146
G1 X131.932 Y77.977 E0.46406
G1 X132.029 Y78.343 E0.47666
G1 X132.05 Y78.617 E0.4858
G1 X132.05 Y88.383 E0.81062
G1 X132.01 Y88.76 E0.82322
G1 X131.892 Y89.12 E0.83583
G1 X131.702 Y89.447 E0.8484
G1 X131.523 Y89.656 E0.85756
G1 X131.406 Y89.773 E0.86306
G1 X131.111 Y90.011 E0.87567
G1 X130.893 Y90.121 E0.88379
G1 X131.197 Y90.298 E0.89549
G1 X131.406 Y90.477 E0.90464
G1 X131.523 Y90.594 E0.91014
G1 X131.761 Y90.889 E0.92275
G1 X131.932 Y91.227 E0.93535
G1 X132.029 Y91.593 E0.94794
G1 X132.05 Y91.867 E0.95708
G1 X132.05 Y101.633 E1.2819
G1 X132.01 Y102.01 E1.29451
G1 X131.892 Y102.37 E1.30711
G1 X131.702 Y102.697 E1.31969
G1 X131.523 Y102.906 E1.32884
G1 X131.406 Y103.023 E1.33435
G1 X131.111 Y103.261 E1.34695
G1 X130.893 Y103.371 E1.35507
G1 X131.197 Y103.548 E1.36677
G1 X131.406 Y103.727 E1.37593
G1 X131.523 Y103.844 E1.38143
G1 X131.761 Y104.139 E1.39404
G1 X131.932 Y104.477 E1.40663
G1 X132.029 Y104.843 E1.41923
G1 X132.05 Y105.117 E1.42837
G1 X132.05 Y114.883 E1.75319
G1 X132.01 Y115.26 E1.7658
G1 X131.892 Y115.62 E1.7784
G1 X131.702 Y115.947 E1.79098
G1 X131.523 Y116.156 E1.80013
G1 X131.406 Y116.273 E1.80563
G1 X131.111 Y116.511 E1.81824
G1 X130.893 Y116.621 E1.82636
G1 X131.197 Y116.798 E1.83806
G1 X131.406 Y116.977 E1.84721
G1 X131.523 Y117.094 E1.85272
G1 X131.761 Y117.389 E1.86532
G1 X131.932 Y117.727 E1.87792
G1 X132.029 Y118.093 E1.89051
G1 X132.05 Y118.367 E1.89965
G1 X132.05 Y128.133 E2.22447
G1 X132.01 Y128.51 E2.23708
G1 X131.892 Y128.87 E2.24968
G1 X131.702 Y129.197 E2.26226
G1 X131.523 Y129.406 E2.27141
G1 X131.406 Y129.523 E2.27692
G1 X131.111 Y129.761 E2.28952
G1 X130.893 Y129.871 E2.29765
G1 X131.197 Y130.048 E2.30935
G1 X131.406 Y130.227 E2.3185
G1 X131.523 Y130.344 E2.324
G1 X131.761 Y130.639 E2.33661
G1 X131.932 Y130.977 E2.34921
G1 X132.029 Y131.343 E2.3618
G1 X132.05 Y131.617 E2.37094
G1 X132.05 Y141.383 E2.69576
G1 X132.01 Y141.76 E2.70837
G1 X131.892 Y142.12 E2.72097
G1 X131.702 Y142.447 E2.73355
G1 X131.523 Y142.656 E2.7427
G1 X131.406 Y142.773 E2.7482
G1 X131.111 Y143.011 E2.76081
G1 X130.773 Y143.182 E2.77341
G1 X130.407 Y143.279 E2.786
G1 X130.133 Y143.3 E2.79514
G1 X120.367 Y143.3 E3.11996
G1 X119.99 Y143.26 E3.13257
G1 X119.63 Y143.142 E3.14517
G1 X119.303 Y142.952 E3.15775
G1 X119.094 Y142.773 E3.1669
G1 X118.977 Y142.656 E3.17241
G1 X118.739 Y142.361 E3.18501
G1 X118.568 Y142.023 E3.19761
G1 X118.471 Y141.657 E3.2102
G1 X118.45 Y141.383 E3.21934
G1 X118.45 Y131.617 E3.54416
G1 X118.49 Y131.24 E3.55677
G1 X118.608 Y130.88 E3.56937
G1 X118.798 Y130.553 E3.58195
G1 X118.977 Y130.344 E3.5911
G1 X119.094 Y130.227 E3.59661
G1 X119.389 Y129.989 E3.60921
G1 X119.607 Y129.879 E3.61734
G1 X119.303 Y129.702 E3.62904
G1 X119.094 Y129.523 E3.63819
G1 X118.977 Y129.406 E3.64369
G1 X118.739 Y129.111 E3.6563
G1 X118.568 Y128.773 E3.6689
G1 X118.471 Y128.407 E3.68149
G1 X118.45 Y128.133 E3.69063
G1 X118.45 Y118.367 E4.01545
G1 X118.49 Y117.99 E4.02806
G1 X118.608 Y117.63 E4.04066
G1 X118.798 Y117.303 E4.05324
G1 X118.977 Y117.094 E4.06239
G1 X119.094 Y116.977 E4.06789
G1 X119.389 Y116.739 E4.0805
G1 X119.607 Y116.629 E4.08862
G1 X119.303 Y116.452 E4.10032
G1 X119.094 Y116.273 E4.10947
G1 X118.977 Y116.156 E4.11498
G1 X118.739 Y115.861 E4.12758
G1 X118.568 Y115.523 E4.14018
G1 X118.471 Y115.157 E4.15278
G1 X118.45 Y114.883 E4.16192
G1 X118.45 Y105.117 E4.48673
G1 X118.49 Y104.74 E4.49934
G1 X118.608 Y104.38 E4.51194
G1 X118.798 Y104.053 E4.52452
G1 X118.977 Y103.844 E4.53368
G1 X119.094 Y103.727 E4.53918
G1 X119.389 Y103.489 E4.55179
G1 X119.607 Y103.379 E4.55991
G1 X119.303 Y103.202 E4.57161
G1 X119.094 Y103.023 E4.58076
G1 X118.977 Y102.906 E4.58626
G1 X118.739 Y102.611 E4.59887
G1 X118.568 Y102.273 E4.61147
G1 X118.471 Y101.907 E4.62406
G1 X118.45 Y101.633 E4.6332
G1 X118.45 Y91.867 E4.95802
G1 X118.49 Y91.49 E4.97063
G1 X118.608 Y91.13 E4.98323
G1 X118.798 Y90.803 E4.99581
G1 X118.977 Y90.594 E5.00496
G1 X119.094 Y90.477 E5.01046
G1 X119.389 Y90.239 E5.02307
G1 X119.607 Y90.129 E5.03119
G1 X119.303 Y89.952 E5.04289
G1 X119.094 Y89.773 E5.05205
G1 X118.977 Y89.656 E5.05755
G1 X118.739 Y89.361 E5.07016
G1 X118.568 Y89.023 E5.08275
G1 X118.471 Y88.657 E5.09535
G1 X118.45 Y88.383 E5.10449
G1 X118.45 Y78.617 E5.42931
G1 X118.49 Y78.24 E5.44192
G1 X118.608 Y77.88 E5.45452
G1 X118.798 Y77.553 E5.46709
G0 F6000 X119.26 Y77.627
G1 F1200 X119.377 Y77.51 E5.4726
G1 X119.64 Y77.304 E5.48371
G1 X119.944 Y77.165 E5.49483
G1 X120.367 Y77.1 E5.50906
G1 X130.133 Y77.1 E5.83388
G1 X130.465 Y77.14 E5.845
G1 X130.777 Y77.257 E5.85609
G1 X131.123 Y77.51 E5.87034
G1 X131.24 Y77.627 E5.87584
G1 X131.446 Y77.89 E5.88696
G1 X131.585 Y78.194 E5.89807
G1 X131.65 Y78.617 E5.91231
G1 X131.65 Y88.383 E6.23713
G1 X131.61 Y88.715 E6.24825
G1 X131.493 Y89.027 E6.25933
G1 X131.24 Y89.373 E6.27359
G1 X131.123 Y89.49 E6.27909
G1 X130.86 Y89.696 E6.2902
G1 X130.556 Y89.835 E6.30132
G1 X130.133 Y89.9 E6.31555
G1 X120.367 Y89.9 E6.64037
G1 X120.035 Y89.86 E6.6515
G1 X119.723 Y89.743 E6.66258
G1 X119.377 Y89.49 E6.67683
G1 X119.26 Y89.373 E6.68234
G1 X119.054 Y89.11 E6.69345
G1 X118.915 Y88.806 E6.70457
G1 X118.85 Y88.383 E6.7188
G1 X118.85 Y78.617 E7.04362
G1 X118.89 Y78.285 E7.05474
G1 X119.007 Y77.973 E7.06582
G1 X119.26 Y77.627 E7.08008
G0 F6000 X119.406 Y78.081
G1 F1200 X119.543 Y77.91 E7.08737
G1 X119.66 Y77.793 E7.09287
G1 X119.886 Y77.624 E7.10226
G1 X120.15 Y77.524 E7.11165
G1 X120.367 Y77.5 E7.11891
G1 X130.133 Y77.5 E7.44373
G1 X130.412 Y77.54 E7.4531
G1 X130.669 Y77.656 E7.46248
G1 X130.84 Y77.793 E7.46977
G1 X130.957 Y77.91 E7.47527
G1 X131.126 Y78.136 E7.48466
G1 X131.226 Y78.4 E7.49405
G1 X131.25 Y78.617 E7.50131
G1 X131.25 Y88.383 E7.82613
G1 X131.21 Y88.662 E7.8355
G1 X131.094 Y88.919 E7.84488
G1 X130.957 Y89.09 E7.85217
G1 X130.84 Y89.207 E7.85767
G1 X130.614 Y89.376 E7.86706
G1 X130.35 Y89.476 E7.87645
G1 X130.133 Y89.5 E7.88371
G1 X120.367 Y89.5 E8.20853
G1 X120.088 Y89.46 E8.2179
G1 X119.831 Y89.344 E8.22728
G1 X119.66 Y89.207 E8.23457
G1 X119.543 Y89.09 E8.24007
G1 X119.374 Y88.864 E8.24946
G1 X119.274 Y88.6 E8.25885
G1 X119.25 Y88.383 E8.26611
G1 X119.25 Y78.617 E8.59093
G1 X119.29 Y78.338 E8.6003
G1 X119.406 Y78.081 E8.60968
G0 F6000 X119.826 Y78.193
G1 F1200 X119.943 Y78.076 E8.61518
G1 X120.122 Y77.952 E8.62242
G1 X120.367 Y77.9 E8.63075
G1 X130.133 Y77.9 E8.95557
G1 X130.348 Y77.94 E8.96285
G1 X130.557 Y78.076 E8.97114
G1 X130.674 Y78.193 E8.97664
G1 X130.798 Y78.372 E8.98389
G1 X130.85 Y78.617 E8.99222
G1 X130.85 Y88.383 E9.31703
G1 X130.81 Y88.598 E9.32431
G1 X130.674 Y88.807 E9.3326
G1 X130.557 Y88.924 E9.3381
G1 X130.378 Y89.048 E9.34535
G1 X130.133 Y89.1 E9.35368
G1 X120.367 Y89.1 E9.6785
G1 X120.152 Y89.06 E9.68577
G1 X119.943 Y88.924 E9.69406
G1 X119.826 Y88.807 E9.69957
G1 X119.702 Y88.628 E9.70681
G1 X119.65 Y88.383 E9.71514
G1 X119.65 Y78.617 E10.03996
G1 X119.69 Y78.402 E10.04723
G1 X119.826 Y78.193 E10.05552
G0 F6000 X120.109 Y78.476
G1 F1200 X120.226 Y78.359 E10.06103
G1 X120.367 Y78.3 E10.06611
G1 X130.133 Y78.3 E10.39093
G1 X130.274 Y78.359 E10.39601
G1 X130.391 Y78.476 E10.40152
G1 X130.45 Y78.617 E10.4066
G1 X130.45 Y88.383 E10.73142
G1 X130.391 Y88.524 E10.7365
G1 X130.274 Y88.641 E10.74201
G1 X130.133 Y88.7 E10.74709
G1 X120.367 Y88.7 E11.07191
G1 X120.226 Y88.641 E11.07699
G1 X120.109 Y88.524 E11.0825
G1 X120.05 Y88.383 E11.08758
G1 X120.05 Y78.617 E11.4124
G1 X120.109 Y78.476 E11.41748
G1 F1500 E4.91748
G0 F6000 X119.585 Y78.476
G0 X116.682 Y77.977
G1 F1500 E11.41748
G1 F1200 X116.779 Y78.343 E11.43007
G1 X116.8 Y78.617 E11.43921
G1 X116.8 Y88.383 E11.76403
G1 X116.76 Y88.76 E11.77664
G1 X116.642 Y89.12 E11.78924
G1 X116.452 Y89.447 E11.80182
G1 X116.273 Y89.656 E11.81097
G1 X116.156 Y89.773 E11.81648
G1 X115.861 Y90.011 E11.82908
G1 X115.643 Y90.121 E11.83721
G1 X115.947 Y90.298 E11.84891
G1 X116.156 Y90.477 E11.85806
G1 X116.273 Y90.594 E11.86356
G1 X116.511 Y90.889 E11.87617
G1 X116.682 Y91.227 E11.88877
G1 X116.779 Y91.593 E11.90136
G1 X116.8 Y91.867 E11.9105
G1 X116.8 Y101.633 E12.23532
G1 X116.76 Y102.01 E12.24793
G1 X116.642 Y102.37 E12.26053
G1 X116.452 Y102.697 E12.27311
G1 X116.273 Y102.906 E12.28226
G1 X116.156 Y103.023 E12.28776
G1 X115.861 Y103.261 E12.30037
G1 X115.643 Y103.371 E12.30849
G1 X115.947 Y103.548 E12.32019
G1 X116.156 Y103.727 E12.32934
G1 X116.273 Y103.844 E12.33485
G1 X116.511 Y104.139 E12.34745
G1 X116.682 Y104.477 E12.36005
G1 X116.779 Y104.843 E12.37265
G1 X116.8 Y105.117 E12.38179
G1 X116.8 Y114.883 E12.70661
G1 X116.76 Y115.26 E12.71921
G1 X116.642 Y115.62 E12.73182
G1 X116.452 Y115.947 E12.74439
G1 X116.273 Y116.156 E12.75355
G1 X116.156 Y116.273 E12.75905
G1 X115.861 Y116.511 E12.77166
G1 X115.643 Y116.621 E12.77978
G1 X115.947 Y116.798 E12.79148
G1 X116.156 Y116.977 E12.80063
G1 X116.273 Y117.094 E12.80613
G1 X116.511 Y117.389 E12.81874
G1 X116.682 Y117.727 E12.83134
G1 X116.779 Y118.093 E12.84393
G1 X116.8 Y118.367 E12.85307
G1 X116.8 Y128.133 E13.17789
G1 X116.76 Y128.51 E13.1905
G1 X116.642 Y128.87 E13.2031
G1 X116.452 Y129.197 E13.21568
G1 X116.273 Y129.406 E13.22483
G1 X116.156 Y129.523 E13.23034
G1 X115.861 Y129.761 E13.24294
G1 X115.643 Y129.871 E13.25106
G1 X115.947 Y130.048 E13.26276
G1 X116.156 Y130.227 E13.27192
G1 X116.273 Y130.344 E13.27742
G1 X116.511 Y130.639 E13.29003
G1 X116.682 Y130.977 E13.30263
G1 X116.779 Y131.343 E13.31522
G1 X116.8 Y131.617 E13.32436
G1 X116.8 Y141.383 E13.64918
G1 X116.76 Y141.76 E13.66179
G1 X116.642 Y142.12 E13.67439
G1 X116.452 Y142.447 E13.68697
G1 X116.273 Y142.656 E13.69612
G1 X116.156 Y142.773 E13.70162
G1 X115.861 Y143.011 E13.71423
G1 X115.523 Y143.182 E13.72683
G1 X115.157 Y143.279 E13.73942
G1 X114.883 Y143.3 E13.74856
G1 X105.117 Y143.3 E14.07338
G1 X104.74 Y143.26 E14.08599
G1 X104.38 Y143.142 E14.09859
G1 X104.053 Y142.952 E14.11117
G1 X103.844 Y142.773 E14.12032
G1 X103.727 Y142.656 E14.12582
G1 X103.489 Y142.361 E14.13843
G1 X103.318 Y142.023 E14.15103
G1 X103.221 Y141.657 E14.16362
G1 X103.2 Y141.383 E14.17276
G1 X103.2 Y131.617 E14.49758
G1 X103.24 Y131.24 E14.51019
G1 X103.358 Y130.88 E14.52279
G1 X103.548 Y130.553 E14.53537
G1 X103.727 Y130.344 E14.54452
G1 X103.844 Y130.227 E14.55003
G1 X104.139 Y129.989 E14.56263
G1 X104.357 Y129.879 E14.57075
G1 X104.053 Y129.702 E14.58245
G1 X103.844 Y129.523 E14.59161
G1 X103.727 Y129.406 E14.59711
G1 X103.489 Y129.111 E14.60972
G1 X103.318 Y128.773 E14.62231
G1 X103.221 Y128.407 E14.63491
G1 X103.2 Y128.133 E14.64405
G1 X103.2 Y118.367 E14.96887
G1 X103.24 Y117.99 E14.98148
G1 X103.358 Y117.63 E14.99408
G1 X103.548 Y117.303 E15.00666
G1 X103.727 Y117.094 E15.01581
G1 X103.844 Y116.977 E15.02131
G1 X104.139 Y116.739 E15.03392
G1 X104.357 Y116.629 E15.04204
G1 X104.053 Y116.452 E15.05374
G1 X103.844 Y116.273 E15.06289
G1 X103.727 Y116.156 E15.0684
G1 X103.489 Y115.861 E15.081
G1 X103.318 Y115.523 E15.0936
G1 X103.221 Y115.157 E15.10619
G1 X103.2 Y114.883 E15.11533
G1 X103.2 Y105.117 E15.44015
G1 X103.24 Y104.74 E15.45276
G1 X103.358 Y104.38 E15.46536
G1 X103.548 Y104.053 E15.47794
G1 X103.727 Y103.844 E15.48709
G1 X103.844 Y103.727 E15.4926
G1 X104.139 Y103.489 E15.5052
G1 X104.357 Y103.379 E15.51333
G1 X104.053 Y103.202 E15.52503
G1 X103.844 Y103.023 E15.53418
G1 X103.727 Y102.906 E15.53968
G1 X103.489 Y102.611 E15.55229
G1 X103.318 Y102.273 E15.56489
G1 X103.221 Y101.907 E15.57748
G1 X103.2 Y101.633 E15.58662
G1 X103.2 Y91.867 E15.91144
G1 X103.24 Y91.49 E15.92405
G1 X103.358 Y91.13 E15.93665
G1 X103.548 Y90.803 E15.94923
G1 X103.727 Y90.594 E15.95838
G1 X103.844 Y90.477 E15.96388
G1 X104.139 Y90.239 E15.97649
G1 X104.357 Y90.129 E15.98461
G1 X104.053 Y89.952 E15.99631
G1 X103.844 Y89.773 E16.00546
G1 X103.727 Y89.656 E16.01097
G1 X103.489 Y89.361 E16.02357
G1 X103.318 Y89.023 E16.03617
G1 X103.221 Y88.657 E16.04877
G1 X103.2 Y88.383 E16.05791
G1 X103.2 Y78.617 E16.38272
G1 X103.24 Y78.24 E16.39533
G1 X103.358 Y77.88 E16.40793
G1 X103.548 Y77.553 E16.42051
G1 X103.727 Y77.344 E16.42967
G1 X103.844 Y77.227 E16.43517
G1 X104.139 Y76.989 E16.44778
G1 X104.477 Y76.818 E16.46037
G1 X104.843 Y76.721 E16.47297
G1 X105.117 Y76.7 E16.48211
G1 X114.883 Y76.7 E16.80693
G1 X115.26 Y76.74 E16.81954
G1 X115.62 Y76.858 E16.83214
G1 X115.947 Y77.048 E16.84472
G1 X116.156 Y77.227 E16.85387
G1 X116.273 Y77.344 E16.85937
G1 X116.511 Y77.639 E16.87198
G1 X116.682 Y77.977 E16.88458
G0 F6000 X116.335 Y78.194
G1 F1200 X116.4 Y78.617 E16.89881
G1 X116.4 Y88.383 E17.22363
G1 X116.36 Y88.715 E17.23475
G1 X116.243 Y89.027 E17.24583
G1 X115.99 Y89.373 E17.26009
G1 X115.873 Y89.49 E17.26559
G1 X115.61 Y89.696 E17.2767
G1 X115.306 Y89.835 E17.28782
G1 X114.883 Y89.9 E17.30206
G1 X105.117 Y89.9 E17.62688
G1 X104.785 Y89.86 E17.638
G1 X104.473 Y89.743 E17.64908
G1 X104.127 Y89.49 E17.66334
G1 X104.01 Y89.373 E17.66884
G1 X103.804 Y89.11 E17.67995
G1 X103.665 Y88.806 E17.69107
G1 X103.6 Y88.383 E17.7053
G1 X103.6 Y78.617 E18.03012
G1 X103.64 Y78.285 E18.04124
G1 X103.757 Y77.973 E18.05233
G1 X104.01 Y77.627 E18.06658
G1 X104.127 Y77.51 E18.07209
G1 X104.39 Y77.304 E18.0832
G1 X104.694 Y77.165 E18.09432
G1 X105.117 Y77.1 E18.10855
G1 X114.883 Y77.1 E18.43337
G1 X115.215 Y77.14 E18.44449
G1 X115.527 Y77.257 E18.45557
G1 X115.873 Y77.51 E18.46983
G1 X115.99 Y77.627 E18.47533
G1 X116.196 Y77.89 E18.48644
G1 X116.335 Y78.194 E18.49756
G0 F6000 X115.976 Y78.4
G1 F1200 X116 Y78.617 E18.50482
G1 X116 Y88.383 E18.82964
G1 X115.96 Y88.662 E18.83902
G1 X115.844 Y88.919 E18.8484
G1 X115.707 Y89.09 E18.85568
G1 X115.59 Y89.207 E18.86119
G1 X115.364 Y89.376 E18.87057
G1 X115.1 Y89.476 E18.87996
G1 X114.883 Y89.5 E18.88722
G1 X105.117 Y89.5 E19.21204
G1 X104.838 Y89.46 E19.22142
G1 X104.581 Y89.344 E19.23079
G1 X104.41 Y89.207 E19.23808
G1 X104.293 Y89.09 E19.24359
G1 X104.124 Y88.864 E19.25297
G1 X104.024 Y88.6 E19.26236
G1 X104 Y88.383 E19.26962
G1 X104 Y78.617 E19.59444
G1 X104.04 Y78.338 E19.60382
G1 X104.156 Y78.081 E19.61319
G1 X104.293 Y77.91 E19.62048
G1 X104.41 Y77.793 E19.62598
G1 X104.636 Y77.624 E19.63537
G1 X104.9 Y77.524 E19.64476
G1 X105.117 Y77.5 E19.65202
G1 X114.883 Y77.5 E19.97684
G1 X115.162 Y77.54 E19.98621
G1 X115.419 Y77.656 E19.99559
G1 X115.59 Y77.793 E20.00288
