;FLAVOR:Marlin
;TIME:21330
;Filament used: 15.1833m
;Layer height: 0.2
;MINX:43.68
;MINY:43.68
;MINZ:0.2
;MAXX:176.319
;MAXY:176.319
;MAXZ:15.4
;Generated with Cura_SteamEngine 4.4.1
M140 S60
M105
M190 S60
M104 S200
M105
M109 S200
M82 ;absolute extrusion mode
M201 X500.00 Y500.00 Z100.00 E5000.00 ;Setup machine max acceleration
M203 X500.00 Y500.00 Z10.00 E50.00 ;Setup machine max feedrate
M204 P500.00 R1000.00 T500.00 ;Setup Print/Retract/Travel acceleration
M205 X8.00 Y8.00 Z0.40 E5.00 ;Setup Jerk
M220 S100 ;Reset Feedrate
M221 S100 ;Reset Flowrate

G28 ;Home

G92 E0 ;Reset Extruder
G1 Z2.0 F3000 ;Move Z Axis up
G1 X10.1 Y20 Z0.28 F5000.0 ;Move to start position
G1 X10.1 Y200.0 Z0.28 F1500.0 E15 ;Draw the first line
G1 X10.4 Y200.0 Z0.28 F5000.0 ;Move to side a little
G1 X10.4 Y20 Z0.28 F1500.0 E30 ;Draw the second line
G92 E0 ;Reset Extruder
G1 Z2.0 F3000 ;Move Z Axis up

G92 E0
G92 E0
G1 F1500 E-6.5
;LAYER_COUNT:77
;LAYER:0
M107
G0 F6000 X47.178 Y46.826 Z0.2
;TYPE:SKIRT
G1 F1500 E0
G1 F1200 X47.289 Y46.721 E0.00508
G1 X47.894 Y46.195 E0.03175
G1 X48.017 Y46.097 E0.03698
G1 X48.665 Y45.626 E0.06362
G1 X48.791 Y45.542 E0.06866
G1 X49.503 Y45.111 E0.09634
G1 X49.641 Y45.035 E0.10158
G1 X50.392 Y44.666 E0.12941
G1 X50.535 Y44.604 E0.13459
G1 X51.275 Y44.317 E0.16099
G1 X51.42 Y44.267 E0.16609
G1 X52.223 Y44.032 E0.19392
G1 X52.373 Y43.996 E0.19905
G1 X53.161 Y43.837 E0.22579
G1 X53.315 Y43.812 E0.23098
G1 X54.157 Y43.717 E0.25916
G1 X54.288 Y43.707 E0.26353
G1 X54.873 Y43.684 E0.283
G1 X54.938 Y43.683 E0.28517
G1 X55.802 Y43.68 E0.3139
G1 X55.81 Y43.68 E0.31417
G1 X57.423 Y43.682 E0.36782
G1 X57.8 Y43.722 E0.38043
G1 X58.306 Y43.915 E0.39844
G1 X58.483 Y44.015 E0.4052
G1 X58.792 Y44.235 E0.41782
G1 X59.047 Y44.515 E0.43041
G1 X59.088 Y44.584 E0.43308
G1 X62.338 Y44.594 E0.54118
G1 X100.661 Y44.593 E1.81581
G1 X100.831 Y44.367 E1.82521
G1 X101.262 Y44.026 E1.84349
G1 X101.444 Y43.923 E1.85045
G1 X101.792 Y43.773 E1.86305
G1 X102.331 Y43.69 E1.88119
G1 X157.663 Y43.69 E3.72154
G1 X159.549 Y43.688 E3.78427
G1 X159.926 Y43.727 E3.79688
G1 X160.436 Y43.921 E3.81502
G1 X160.613 Y44.021 E3.82179
G1 X160.922 Y44.241 E3.8344
G1 X161.177 Y44.521 E3.847
G1 X161.214 Y44.584 E3.84943
G1 X162.089 Y44.582 E3.87853
G1 X162.102 Y44.582 E3.87896
G1 X165.144 Y44.595 E3.98014
G1 X165.246 Y44.598 E3.98353
G1 X166.031 Y44.646 E4.00969
G1 X166.188 Y44.663 E4.01495
G1 X166.928 Y44.774 E4.03983
G1 X167.085 Y44.805 E4.04516
G1 X167.79 Y44.976 E4.06928
G1 X167.934 Y45.017 E4.07426
G1 X168.649 Y45.255 E4.09933
G1 X168.797 Y45.312 E4.1046
G1 X169.468 Y45.603 E4.12893
G1 X169.605 Y45.669 E4.13399
G1 X170.259 Y46.021 E4.15869
G1 X170.394 Y46.101 E4.16391
G1 X171.014 Y46.508 E4.18858
G1 X171.141 Y46.6 E4.19379
G1 X171.72 Y47.057 E4.21833
G1 X171.833 Y47.154 E4.22328
G1 X172.375 Y47.66 E4.24794
G1 X172.485 Y47.772 E4.25316
G1 X172.986 Y48.329 E4.27808
G1 X173.087 Y48.451 E4.28335
G1 X173.532 Y49.043 E4.30798
G1 X173.616 Y49.165 E4.31291
G1 X174.001 Y49.776 E4.33693
G1 X174.081 Y49.918 E4.34235
G1 X174.422 Y50.586 E4.36729
G1 X174.485 Y50.721 E4.37225
G1 X174.767 Y51.409 E4.39698
G1 X174.82 Y51.559 E4.40227
G1 X175.041 Y52.272 E4.4271
G1 X175.08 Y52.419 E4.43215
G1 X175.237 Y53.134 E4.4565
G1 X175.264 Y53.286 E4.46164
G1 X175.359 Y54.012 E4.48599
G1 X175.372 Y54.167 E4.49116
G1 X175.405 Y54.915 E4.51607
G1 X175.407 Y54.987 E4.51846
G1 X175.419 Y57.897 E4.61525
G1 X175.419 Y57.909 E4.61565
G1 X175.406 Y62.338 E4.76296
G1 X175.407 Y96.956 E5.91436
G1 X175.634 Y97.126 E5.92379
G1 X175.977 Y97.561 E5.94221
G1 X176.08 Y97.744 E5.9492
G1 X176.23 Y98.092 E5.9618
G1 X176.311 Y98.627 E5.9798
G1 X176.31 Y157.669 E7.94355
G1 X176.319 Y164.988 E8.18698
G1 X176.317 Y165.066 E8.18957
G1 X176.284 Y165.846 E8.21554
G1 X176.272 Y165.997 E8.22058
G1 X176.172 Y166.785 E8.24699
G1 X176.147 Y166.93 E8.25189
G1 X175.969 Y167.772 E8.28051
G1 X175.929 Y167.928 E8.28587
G1 X175.695 Y168.691 E8.31241
G1 X175.643 Y168.837 E8.31757
G1 X175.337 Y169.595 E8.34476
G1 X175.278 Y169.727 E8.34956
G1 X174.911 Y170.46 E8.37683
G1 X174.833 Y170.599 E8.38213
G1 X174.407 Y171.29 E8.40913
G1 X174.319 Y171.42 E8.41435
G1 X173.826 Y172.082 E8.4418
G1 X173.723 Y172.207 E8.44719
G1 X173.17 Y172.825 E8.47477
G1 X173.068 Y172.931 E8.47967
G1 X172.187 Y173.767 E8.52006
G1 X171.946 Y173.959 E8.53031
G1 X171.665 Y174.146 E8.54154
G1 X171.408 Y174.351 E8.55247
G1 X171.151 Y174.522 E8.56274
G1 X170.06 Y175.119 E8.6041
G1 X169.926 Y175.185 E8.60907
G1 X169.194 Y175.51 E8.63571
G1 X169.008 Y175.581 E8.64233
G1 X167.99 Y175.904 E8.67785
G1 X167.88 Y175.935 E8.68165
G1 X167.324 Y176.073 E8.70071
G1 X167.169 Y176.104 E8.70597
G1 X166.347 Y176.233 E8.73364
G1 X166.195 Y176.25 E8.73873
G1 X165.377 Y176.308 E8.766
G1 X165.283 Y176.313 E8.76913
G1 X165.01 Y176.318 E8.77821
G1 X163.173 Y176.318 E8.83931
G1 X162.796 Y176.278 E8.85192
G1 X162.286 Y176.085 E8.87006
G1 X162.104 Y175.982 E8.87701
G1 X161.796 Y175.761 E8.88962
G1 X161.541 Y175.481 E8.90222
G1 X161.504 Y175.417 E8.90468
G1 X157.662 Y175.406 E9.03246
G1 X123.343 Y175.407 E10.17392
G1 X123.173 Y175.633 E10.18332
G1 X122.737 Y175.976 E10.20178
G1 X122.552 Y176.08 E10.20883
G1 X122.204 Y176.23 E10.22144
G1 X121.67 Y176.311 E10.2394
G1 X62.338 Y176.31 E12.21279
G1 X55.015 Y176.319 E12.45636
G1 X54.95 Y176.318 E12.45852
G1 X54.351 Y176.297 E12.47845
G1 X54.229 Y176.288 E12.48252
G1 X53.099 Y176.171 E12.52031
G1 X52.807 Y176.117 E12.53018
G1 X51.154 Y175.663 E12.5872
G1 X50.856 Y175.552 E12.59778
G1 X49.772 Y175.035 E12.63772
G1 X49.635 Y174.962 E12.64288
G1 X48.907 Y174.534 E12.67097
G1 X48.773 Y174.447 E12.67629
G1 X48.101 Y173.967 E12.70375
G1 X47.982 Y173.874 E12.70878
G1 X47.358 Y173.344 E12.73601
G1 X47.245 Y173.239 E12.74114
G1 X46.671 Y172.66 E12.76825
G1 X46.562 Y172.541 E12.77362
G1 X46.033 Y171.902 E12.80121
G1 X45.941 Y171.78 E12.80629
G1 X45.487 Y171.126 E12.83277
G1 X45.4 Y170.987 E12.83823
G1 X44.949 Y170.191 E12.86866
G1 X44.883 Y170.063 E12.87345
G1 X44.574 Y169.398 E12.89784
G1 X44.513 Y169.25 E12.90316
G1 X44.232 Y168.472 E12.93067
G1 X44.188 Y168.332 E12.93555
G1 X43.978 Y167.558 E12.96223
G1 X43.943 Y167.402 E12.96755
G1 X43.795 Y166.569 E12.99569
G1 X43.774 Y166.417 E13.00079
G1 X43.701 Y165.612 E13.02767
G1 X43.695 Y165.496 E13.03154
G1 X43.684 Y165.077 E13.04548
G1 X43.683 Y165.037 E13.04681
G1 X43.68 Y164.216 E13.07411
G1 X43.68 Y164.207 E13.07441
G1 X43.682 Y162.712 E13.12414
G1 X43.722 Y162.335 E13.13675
G1 X43.916 Y161.826 E13.15486
G1 X44.017 Y161.648 E13.16167
G1 X44.238 Y161.34 E13.17428
G1 X44.518 Y161.085 E13.18688
G1 X44.584 Y161.047 E13.18941
G1 X44.594 Y157.662 E13.302
G1 X44.593 Y123.046 E14.45333
G1 X44.367 Y122.876 E14.46273
G1 X44.024 Y122.44 E14.48119
G1 X43.92 Y122.255 E14.48824
G1 X43.77 Y121.907 E14.50085
G1 X43.689 Y121.373 E14.51881
G1 X43.69 Y62.331 E16.48256
G1 X43.681 Y54.98 E16.72705
G1 X43.682 Y54.927 E16.72882
G1 X43.691 Y54.609 E16.7394
G1 X43.696 Y54.519 E16.74239
G1 X43.762 Y53.682 E16.77032
G1 X43.782 Y53.519 E16.77578
G1 X43.914 Y52.749 E16.80177
G1 X43.944 Y52.606 E16.80663
G1 X44.261 Y51.369 E16.8491
G1 X44.367 Y51.07 E16.85965
G1 X44.508 Y50.76 E16.87098
G1 X44.623 Y50.437 E16.88238
G1 X44.749 Y50.159 E16.89253
G1 X45.341 Y49.104 E16.93277
G1 X45.424 Y48.97 E16.93801
G1 X45.86 Y48.331 E16.96374
G1 X45.95 Y48.211 E16.96873
G1 X46.494 Y47.541 E16.99743
G1 X46.599 Y47.423 E17.00269
G1 X47.178 Y46.826 E17.03035
G0 F6000 X47.465 Y47.104
G1 F1200 X47.551 Y47.022 E17.0343
G1 X48.156 Y46.496 E17.06096
G1 X48.252 Y46.421 E17.06502
G1 X48.9 Y45.95 E17.09166
G1 X48.998 Y45.884 E17.09559
G1 X49.71 Y45.453 E17.12327
G1 X49.818 Y45.394 E17.12737
G1 X50.569 Y45.025 E17.1552
G1 X50.68 Y44.977 E17.15922
G1 X51.42 Y44.69 E17.18562
G1 X51.533 Y44.651 E17.18959
G1 X52.336 Y44.416 E17.21742
G1 X52.452 Y44.388 E17.22139
G1 X53.24 Y44.229 E17.24813
G1 X53.36 Y44.21 E17.25217
G1 X54.202 Y44.115 E17.28035
G1 X54.304 Y44.107 E17.28375
G1 X54.889 Y44.084 E17.30323
G1 X54.939 Y44.083 E17.30489
G1 X55.803 Y44.08 E17.33363
G1 X55.81 Y44.08 E17.33386
G1 X57.423 Y44.082 E17.38751
G1 X57.754 Y44.122 E17.3986
G1 X58.11 Y44.263 E17.41133
G1 X58.287 Y44.363 E17.41809
G1 X58.556 Y44.561 E17.4292
G1 X58.77 Y44.817 E17.4403
G1 X58.853 Y44.984 E17.4465
G1 X62.337 Y44.994 E17.56238
G1 X100.895 Y44.993 E18.84483
G1 X100.979 Y44.824 E18.8511
G1 X101.195 Y44.568 E18.86224
G1 X101.459 Y44.375 E18.87312
G1 X101.641 Y44.272 E18.88008
G1 X101.95 Y44.143 E18.89121
G1 X102.331 Y44.09 E18.90401
G1 X157.664 Y44.09 E20.74439
G1 X159.55 Y44.088 E20.80712
G1 X159.881 Y44.128 E20.81821
G1 X160.24 Y44.269 E20.83104
G1 X160.417 Y44.369 E20.8378
G1 X160.686 Y44.567 E20.84891
G1 X160.9 Y44.823 E20.86001
G1 X160.98 Y44.985 E20.86601
G1 X162.09 Y44.982 E20.90293
G1 X162.1 Y44.982 E20.90327
G1 X165.142 Y44.995 E21.00444
G1 X165.221 Y44.998 E21.00707
G1 X166.006 Y45.046 E21.03323
G1 X166.129 Y45.058 E21.03734
G1 X166.869 Y45.169 E21.06223
G1 X166.991 Y45.193 E21.06637
G1 X167.696 Y45.364 E21.09049
G1 X167.808 Y45.397 E21.09438
G1 X168.523 Y45.635 E21.11944
G1 X168.638 Y45.679 E21.12354
G1 X169.309 Y45.97 E21.14786
G1 X169.416 Y46.021 E21.15181
G1 X170.07 Y46.373 E21.17651
G1 X170.174 Y46.436 E21.18055
G1 X170.794 Y46.843 E21.20522
G1 X170.893 Y46.914 E21.20927
G1 X171.472 Y47.371 E21.2338
G1 X171.56 Y47.447 E21.23767
G1 X172.102 Y47.953 E21.26233
G1 X172.188 Y48.04 E21.2664
G1 X172.689 Y48.597 E21.29132
G1 X172.767 Y48.692 E21.29541
G1 X173.212 Y49.284 E21.32004
G1 X173.277 Y49.379 E21.32387
G1 X173.662 Y49.99 E21.34789
G1 X173.725 Y50.099 E21.35208
G1 X174.066 Y50.767 E21.37702
G1 X174.114 Y50.873 E21.38089
G1 X174.396 Y51.561 E21.40562
G1 X174.438 Y51.678 E21.40976
G1 X174.659 Y52.391 E21.43458
G1 X174.689 Y52.505 E21.43851
G1 X174.846 Y53.22 E21.46285
G1 X174.867 Y53.338 E21.46684
G1 X174.962 Y54.064 E21.49119
G1 X174.973 Y54.184 E21.4952
G1 X175.006 Y54.932 E21.5201
G1 X175.007 Y54.988 E21.52197
G1 X175.019 Y57.898 E21.61875
G1 X175.019 Y57.908 E21.61909
G1 X175.006 Y62.337 E21.7664
G1 X175.007 Y97.189 E22.92558
G1 X175.177 Y97.274 E22.9319
G1 X175.433 Y97.49 E22.94304
G1 X175.628 Y97.757 E22.95404
G1 X175.731 Y97.94 E22.96102
G1 X175.859 Y98.249 E22.97215
G1 X175.911 Y98.627 E22.98484
G1 X175.91 Y157.669 E24.94858
G1 X175.919 Y164.988 E25.19201
G1 X175.918 Y165.049 E25.19404
G1 X175.885 Y165.829 E25.22001
G1 X175.875 Y165.946 E25.22391
G1 X175.775 Y166.734 E25.25033
G1 X175.756 Y166.848 E25.25418
G1 X175.578 Y167.69 E25.2828
G1 X175.546 Y167.81 E25.28693
G1 X175.312 Y168.573 E25.31348
G1 X175.272 Y168.687 E25.31749
G1 X174.966 Y169.445 E25.34468
G1 X174.92 Y169.548 E25.34843
G1 X174.553 Y170.281 E25.3757
G1 X174.493 Y170.389 E25.37981
G1 X174.067 Y171.08 E25.40681
G1 X173.998 Y171.181 E25.41088
G1 X173.505 Y171.843 E25.43833
G1 X173.425 Y171.941 E25.44254
G1 X172.872 Y172.559 E25.47012
G1 X172.793 Y172.641 E25.47391
G1 X171.912 Y173.477 E25.5143
G1 X171.725 Y173.626 E25.52225
G1 X171.427 Y173.825 E25.53417
G1 X171.159 Y174.038 E25.54556
G1 X170.959 Y174.171 E25.55355
G1 X169.868 Y174.768 E25.59491
G1 X169.764 Y174.82 E25.59878
G1 X169.032 Y175.145 E25.62542
G1 X168.887 Y175.199 E25.63056
G1 X167.869 Y175.522 E25.66608
G1 X167.783 Y175.547 E25.66906
G1 X167.227 Y175.685 E25.68812
G1 X167.107 Y175.709 E25.69219
G1 X166.285 Y175.838 E25.71986
G1 X166.167 Y175.851 E25.72381
G1 X165.349 Y175.909 E25.75109
G1 X165.276 Y175.913 E25.75352
G1 X165.003 Y175.918 E25.7626
G1 X163.173 Y175.918 E25.82346
G1 X162.841 Y175.878 E25.83459
G1 X162.483 Y175.736 E25.8474
G1 X162.301 Y175.633 E25.85435
G1 X162.032 Y175.435 E25.86546
G1 X161.818 Y175.179 E25.87656
G1 X161.738 Y175.018 E25.88254
G1 X157.663 Y175.006 E26.01807
G1 X123.109 Y175.007 E27.16734
G1 X123.025 Y175.176 E27.17362
G1 X122.809 Y175.432 E27.18476
G1 X122.541 Y175.627 E27.19579
G1 X122.356 Y175.731 E27.20284
G1 X122.047 Y175.859 E27.21397
G1 X121.67 Y175.911 E27.22663
G1 X62.338 Y175.91 E29.20002
G1 X55.015 Y175.919 E29.44358
G1 X54.964 Y175.918 E29.44528
G1 X54.365 Y175.897 E29.46521
G1 X54.27 Y175.891 E29.46838
G1 X53.14 Y175.774 E29.50616
G1 X52.913 Y175.731 E29.51385
G1 X51.26 Y175.277 E29.57086
G1 X51.028 Y175.191 E29.57909
G1 X49.944 Y174.674 E29.61904
G1 X49.837 Y174.617 E29.62307
G1 X49.109 Y174.189 E29.65116
G1 X49.005 Y174.121 E29.65529
G1 X48.333 Y173.641 E29.68276
G1 X48.241 Y173.569 E29.68664
G1 X47.617 Y173.039 E29.71387
G1 X47.529 Y172.958 E29.71785
G1 X46.955 Y172.379 E29.74497
G1 X46.871 Y172.286 E29.74914
G1 X46.342 Y171.647 E29.77673
G1 X46.27 Y171.552 E29.78069
G1 X45.816 Y170.898 E29.80717
G1 X45.748 Y170.79 E29.81142
G1 X45.297 Y169.994 E29.84185
G1 X45.245 Y169.894 E29.84559
G1 X44.936 Y169.229 E29.86998
G1 X44.889 Y169.115 E29.87408
G1 X44.608 Y168.337 E29.9016
G1 X44.574 Y168.228 E29.90539
G1 X44.364 Y167.454 E29.93207
G1 X44.337 Y167.332 E29.93622
G1 X44.189 Y166.499 E29.96436
G1 X44.173 Y166.38 E29.96836
G1 X44.1 Y165.575 E29.99524
G1 X44.094 Y165.486 E29.99821
G1 X44.083 Y165.067 E30.01215
G1 X44.083 Y165.035 E30.01321
G1 X44.08 Y164.214 E30.04052
G1 X44.08 Y164.207 E30.04075
G1 X44.082 Y162.712 E30.09048
G1 X44.122 Y162.381 E30.10157
G1 X44.264 Y162.023 E30.11438
G1 X44.365 Y161.845 E30.12118
G1 X44.564 Y161.576 E30.13231
G1 X44.82 Y161.362 E30.14341
G1 X44.983 Y161.282 E30.14945
G1 X44.994 Y157.663 E30.26982
G1 X44.993 Y122.812 E31.42897
G1 X44.824 Y122.728 E31.43524
G1 X44.568 Y122.512 E31.44639
G1 X44.373 Y122.244 E31.45741
G1 X44.269 Y122.059 E31.46447
G1 X44.141 Y121.75 E31.47559
G1 X44.089 Y121.373 E31.48825
G1 X44.09 Y62.331 E33.45199
G1 X44.081 Y54.98 E33.69649
G1 X44.082 Y54.938 E33.69789
G1 X44.091 Y54.62 E33.70847
G1 X44.094 Y54.55 E33.7108
G1 X44.16 Y53.713 E33.73872
G1 X44.176 Y53.586 E33.74298
G1 X44.308 Y52.816 E33.76896
G1 X44.332 Y52.705 E33.77274
G1 X44.649 Y51.468 E33.81521
G1 X44.731 Y51.236 E33.8234
G1 X44.88 Y50.909 E33.83535
G1 X45 Y50.571 E33.84728
G1 X45.098 Y50.355 E33.85517
G1 X45.69 Y49.3 E33.89541
G1 X45.755 Y49.196 E33.89948
G1 X46.191 Y48.557 E33.92521
G1 X46.26 Y48.464 E33.92907
G1 X46.804 Y47.794 E33.95777
G1 X46.886 Y47.701 E33.96189
G1 X47.465 Y47.104 E33.98955
G0 F6000 X47.752 Y47.383
G1 F1200 X47.814 Y47.324 E33.9924
G1 X48.419 Y46.798 E34.01907
G1 X48.487 Y46.744 E34.02195
G1 X49.135 Y46.273 E34.0486
G1 X49.205 Y46.227 E34.05138
G1 X49.917 Y45.796 E34.07907
G1 X49.994 Y45.753 E34.082
G1 X50.745 Y45.384 E34.10983
G1 X50.824 Y45.35 E34.11269
G1 X51.564 Y45.063 E34.13909
G1 X51.645 Y45.035 E34.14194
G1 X52.448 Y44.8 E34.16977
G1 X52.531 Y44.78 E34.17261
G1 X53.319 Y44.621 E34.19934
G1 X53.405 Y44.607 E34.20224
G1 X54.247 Y44.512 E34.23043
G1 X54.32 Y44.507 E34.23286
G1 X54.905 Y44.484 E34.25233
G1 X54.941 Y44.483 E34.25353
G1 X55.805 Y44.48 E34.28227
G1 X55.809 Y44.48 E34.2824
G1 X57.422 Y44.482 E34.33605
G1 X57.702 Y44.522 E34.34546
G1 X57.913 Y44.611 E34.35307
G1 X58.09 Y44.711 E34.35983
G1 X58.314 Y44.883 E34.36923
G1 X58.48 Y45.111 E34.37861
G1 X58.577 Y45.376 E34.38799
G1 X58.577 Y45.383 E34.38823
G1 X62.336 Y45.394 E34.51325
G1 X101.177 Y45.393 E35.80511
G1 X101.232 Y45.194 E35.81197
G1 X101.38 Y44.954 E35.82135
G1 X101.656 Y44.723 E35.83332
G1 X101.838 Y44.62 E35.84028
G1 X102.101 Y44.517 E35.84967
G1 X102.331 Y44.49 E35.85738
G1 X157.664 Y44.49 E37.69776
G1 X159.55 Y44.488 E37.76049
G1 X159.829 Y44.528 E37.76986
G1 X160.043 Y44.617 E37.77757
G1 X160.22 Y44.717 E37.78433
G1 X160.444 Y44.889 E37.79373
G1 X160.61 Y45.117 E37.80311
G1 X160.707 Y45.382 E37.81249
G1 X160.707 Y45.386 E37.81262
G1 X162.091 Y45.382 E37.85866
G1 X162.098 Y45.382 E37.85889
G1 X165.14 Y45.395 E37.96007
