;FLAVOR:Marlin
;TIME:27050
;Filament used: 17.8423m
;Layer height: 0.2
;MINX:44.21
;MINY:47.047
;MINZ:0.2
;MAXX:176.85
;MAXY:179.688
;MAXZ:9.4
;Generated with Cura_SteamEngine 4.4.1
M140 S60
M105
M190 S60
M104 S200
M105
M109 S200
M82 ;absolute extrusion mode
M201 X500.00 Y500.00 Z100.00 E5000.00 ;Setup machine max acceleration
M203 X500.00 Y500.00 Z10.00 E50.00 ;Setup machine max feedrate
M204 P500.00 R1000.00 T500.00 ;Setup Print/Retract/Travel acceleration
M205 X8.00 Y8.00 Z0.40 E5.00 ;Setup Jerk
M220 S100 ;Reset Feedrate
M221 S100 ;Reset Flowrate

G28 ;Home

G92 E0 ;Reset Extruder
G1 Z2.0 F3000 ;Move Z Axis up
G1 X10.1 Y20 Z0.28 F5000.0 ;Move to start position
G1 X10.1 Y200.0 Z0.28 F1500.0 E15 ;Draw the first line
G1 X10.4 Y200.0 Z0.28 F5000.0 ;Move to side a little
G1 X10.4 Y20 Z0.28 F1500.0 E30 ;Draw the second line
G92 E0 ;Reset Extruder
G1 Z2.0 F3000 ;Move Z Axis up

G92 E0
G92 E0
G1 F1500 E-6.5
;LAYER_COUNT:47
;LAYER:0
M107
G0 F6000 X47.961 Y49.956 Z0.2
;TYPE:SKIRT
G1 F1500 E0
G1 F1200 X48.074 Y49.856 E0.00502
G1 X48.687 Y49.356 E0.03133
G1 X48.808 Y49.266 E0.03635
G1 X49.483 Y48.804 E0.06355
G1 X49.614 Y48.722 E0.06869
G1 X50.302 Y48.333 E0.09498
G1 X50.432 Y48.266 E0.09984
G1 X51.154 Y47.932 E0.1263
G1 X51.301 Y47.872 E0.13158
G1 X52.096 Y47.586 E0.15968
G1 X52.244 Y47.54 E0.16484
G1 X53.021 Y47.334 E0.19157
G1 X53.168 Y47.302 E0.19658
G1 X53.965 Y47.161 E0.2235
G1 X54.124 Y47.14 E0.22883
G1 X54.909 Y47.072 E0.25504
G1 X55.003 Y47.066 E0.25817
G1 X55.442 Y47.051 E0.27278
G1 X55.497 Y47.05 E0.27461
G1 X56.33 Y47.047 E0.30232
G1 X56.339 Y47.047 E0.30262
G1 X58.681 Y47.051 E0.38051
G1 X59.058 Y47.092 E0.39312
G1 X59.557 Y47.28 E0.41086
G1 X59.732 Y47.378 E0.41753
G1 X60.042 Y47.597 E0.43016
G1 X60.298 Y47.876 E0.44275
G1 X60.344 Y47.954 E0.44576
G1 X62.869 Y47.962 E0.52974
G1 X95.981 Y47.961 E1.63105
G1 X96.151 Y47.735 E1.64046
G1 X96.588 Y47.391 E1.65896
G1 X96.775 Y47.286 E1.66609
G1 X97.123 Y47.137 E1.67868
G1 X97.656 Y47.056 E1.69661
G1 X158.192 Y47.057 E3.71005
G1 X165.528 Y47.048 E3.95404
G1 X165.58 Y47.049 E3.95577
G1 X165.943 Y47.059 E3.96785
G1 X166.037 Y47.064 E3.97098
G1 X166.835 Y47.128 E3.99761
G1 X166.986 Y47.146 E4.00267
G1 X167.786 Y47.279 E4.02964
G1 X167.935 Y47.311 E4.03471
G1 X168.72 Y47.511 E4.06165
G1 X168.872 Y47.556 E4.06692
G1 X169.639 Y47.825 E4.09396
G1 X169.774 Y47.879 E4.09879
G1 X170.485 Y48.195 E4.12467
G1 X170.624 Y48.264 E4.12983
G1 X171.35 Y48.665 E4.15742
G1 X171.48 Y48.744 E4.16248
G1 X172.158 Y49.197 E4.1896
G1 X172.282 Y49.288 E4.19472
G1 X172.904 Y49.785 E4.2212
G1 X173.021 Y49.887 E4.22636
G1 X173.626 Y50.463 E4.25414
G1 X173.732 Y50.573 E4.25922
G1 X174.234 Y51.139 E4.28439
G1 X174.326 Y51.252 E4.28923
G1 X174.824 Y51.915 E4.31681
G1 X174.913 Y52.045 E4.32205
G1 X175.341 Y52.733 E4.349
G1 X175.416 Y52.866 E4.35408
G1 X175.794 Y53.607 E4.38175
G1 X175.858 Y53.746 E4.38684
G1 X176.148 Y54.458 E4.41241
G1 X176.2 Y54.603 E4.41753
G1 X176.448 Y55.402 E4.44536
G1 X176.486 Y55.543 E4.45021
G1 X176.657 Y56.307 E4.47625
G1 X176.684 Y56.463 E4.48152
G1 X176.792 Y57.277 E4.50883
G1 X176.806 Y57.43 E4.51394
G1 X176.844 Y58.245 E4.54108
G1 X176.846 Y58.32 E4.54357
G1 X176.85 Y59.152 E4.57124
G1 X176.85 Y59.164 E4.57164
G1 X176.847 Y60.923 E4.63015
G1 X176.806 Y61.3 E4.64276
G1 X176.611 Y61.81 E4.66092
G1 X176.512 Y61.984 E4.66758
G1 X176.291 Y62.292 E4.68019
G1 X176.011 Y62.547 E4.69278
G1 X175.945 Y62.585 E4.69532
G1 X175.936 Y65.706 E4.79912
G1 X175.937 Y98.822 E5.90057
G1 X176.164 Y98.992 E5.91
G1 X176.507 Y99.427 E5.92842
G1 X176.61 Y99.61 E5.93541
G1 X176.76 Y99.958 E5.94801
G1 X176.841 Y100.493 E5.96601
G1 X176.84 Y161.036 E7.97968
G1 X176.849 Y168.357 E8.22317
G1 X176.847 Y168.434 E8.22574
G1 X176.815 Y169.202 E8.2513
G1 X176.804 Y169.346 E8.25611
G1 X176.708 Y170.129 E8.28234
G1 X176.682 Y170.281 E8.28747
G1 X176.516 Y171.069 E8.31426
G1 X176.48 Y171.211 E8.31913
G1 X176.242 Y172.011 E8.34689
G1 X176.19 Y172.161 E8.35217
G1 X175.89 Y172.918 E8.37925
G1 X175.827 Y173.059 E8.38439
G1 X175.469 Y173.776 E8.41104
G1 X175.397 Y173.907 E8.41602
G1 X174.98 Y174.593 E8.44272
G1 X174.893 Y174.723 E8.44792
G1 X174.418 Y175.37 E8.47462
G1 X174.327 Y175.484 E8.47947
G1 X173.798 Y176.094 E8.50632
G1 X173.685 Y176.213 E8.51178
G1 X173.107 Y176.768 E8.53843
G1 X173.002 Y176.862 E8.54312
G1 X172.356 Y177.392 E8.57091
G1 X172.232 Y177.484 E8.57605
G1 X171.585 Y177.928 E8.60215
G1 X171.45 Y178.012 E8.60743
G1 X170.747 Y178.408 E8.63427
G1 X170.614 Y178.476 E8.63924
G1 X169.912 Y178.798 E8.66493
G1 X169.776 Y178.854 E8.66982
G1 X168.969 Y179.147 E8.69837
G1 X168.816 Y179.195 E8.70371
G1 X168.038 Y179.401 E8.73048
G1 X167.889 Y179.434 E8.73555
G1 X167.093 Y179.574 E8.76243
G1 X166.94 Y179.594 E8.76757
G1 X166.16 Y179.663 E8.79361
G1 X166.061 Y179.669 E8.79691
G1 X165.614 Y179.684 E8.81178
G1 X165.561 Y179.685 E8.81355
G1 X164.731 Y179.688 E8.84115
G1 X164.721 Y179.688 E8.84149
G1 X162.379 Y179.684 E8.91938
G1 X162.002 Y179.643 E8.93199
G1 X161.503 Y179.455 E8.94973
G1 X161.328 Y179.357 E8.9564
G1 X161.018 Y179.138 E8.96902
G1 X160.762 Y178.859 E8.98162
G1 X160.716 Y178.781 E8.98463
G1 X158.191 Y178.773 E9.06861
G1 X121.428 Y178.774 E10.29135
G1 X121.258 Y179 E10.30076
G1 X120.822 Y179.343 E10.31921
G1 X120.637 Y179.447 E10.32627
G1 X120.289 Y179.597 E10.33887
G1 X119.755 Y179.678 E10.35684
G1 X62.868 Y179.678 E12.24891
G1 X57.427 Y179.685 E12.42988
G1 X55.532 Y179.687 E12.4929
G1 X55.481 Y179.686 E12.4946
G1 X55.117 Y179.676 E12.50671
G1 X55.022 Y179.671 E12.50988
G1 X54.225 Y179.607 E12.53647
G1 X54.074 Y179.589 E12.54153
G1 X53.274 Y179.456 E12.5685
G1 X53.125 Y179.424 E12.57357
G1 X52.348 Y179.226 E12.60024
G1 X52.194 Y179.18 E12.60558
G1 X51.419 Y178.907 E12.63291
G1 X51.291 Y178.856 E12.6375
G1 X50.561 Y178.534 E12.66403
G1 X50.415 Y178.462 E12.66945
G1 X49.711 Y178.072 E12.69622
G1 X49.583 Y177.994 E12.7012
G1 X48.899 Y177.537 E12.72856
G1 X48.776 Y177.446 E12.73365
G1 X48.16 Y176.954 E12.75987
G1 X48.042 Y176.852 E12.76506
G1 X47.438 Y176.277 E12.7928
G1 X47.332 Y176.167 E12.79788
G1 X46.816 Y175.585 E12.82375
G1 X46.722 Y175.469 E12.82871
G1 X46.229 Y174.81 E12.85609
G1 X46.139 Y174.679 E12.86137
G1 X45.707 Y173.981 E12.88867
G1 X45.634 Y173.851 E12.89363
G1 X45.267 Y173.131 E12.92051
G1 X45.204 Y172.993 E12.92556
G1 X44.907 Y172.264 E12.95174
G1 X44.855 Y172.119 E12.95686
G1 X44.611 Y171.334 E12.9842
G1 X44.572 Y171.186 E12.9893
G1 X44.399 Y170.397 E13.01616
G1 X44.373 Y170.249 E13.02116
G1 X44.268 Y169.463 E13.04753
G1 X44.254 Y169.308 E13.05271
G1 X44.216 Y168.481 E13.08024
G1 X44.214 Y168.407 E13.08271
G1 X44.21 Y167.583 E13.11011
G1 X44.21 Y167.572 E13.11048
G1 X44.212 Y166.079 E13.16014
G1 X44.252 Y165.702 E13.17275
G1 X44.446 Y165.193 E13.19086
G1 X44.547 Y165.015 E13.19767
G1 X44.768 Y164.707 E13.21028
G1 X45.048 Y164.452 E13.22288
G1 X45.114 Y164.414 E13.22541
G1 X45.124 Y161.029 E13.33799
G1 X45.123 Y126.411 E14.48939
G1 X44.896 Y126.241 E14.49883
G1 X44.553 Y125.806 E14.51725
G1 X44.45 Y125.623 E14.52424
G1 X44.3 Y125.275 E14.53684
G1 X44.219 Y124.74 E14.55484
G1 X44.22 Y65.699 E16.51855
G1 X44.211 Y58.369 E16.76234
G1 X44.213 Y58.29 E16.76497
G1 X44.246 Y57.52 E16.79061
G1 X44.258 Y57.376 E16.79541
G1 X44.353 Y56.607 E16.82118
G1 X44.377 Y56.46 E16.82614
G1 X44.541 Y55.674 E16.85284
G1 X44.578 Y55.529 E16.85782
G1 X44.809 Y54.752 E16.88478
G1 X44.859 Y54.606 E16.88992
G1 X45.158 Y53.846 E16.91708
G1 X45.219 Y53.709 E16.92207
G1 X45.571 Y52.995 E16.94854
G1 X45.646 Y52.857 E16.95377
G1 X46.08 Y52.142 E16.98159
G1 X46.167 Y52.012 E16.98679
G1 X46.646 Y51.358 E17.01375
G1 X46.742 Y51.239 E17.01884
G1 X47.268 Y50.636 E17.04545
G1 X47.373 Y50.524 E17.05056
G1 X47.961 Y49.956 E17.07775
G0 F6000 X48.239 Y50.244
G1 F1200 X48.327 Y50.166 E17.08166
G1 X48.94 Y49.666 E17.10797
G1 X49.034 Y49.596 E17.11187
G1 X49.709 Y49.134 E17.13907
G1 X49.811 Y49.07 E17.14308
G1 X50.499 Y48.681 E17.16937
G1 X50.6 Y48.629 E17.17315
G1 X51.322 Y48.295 E17.1996
G1 X51.436 Y48.249 E17.20369
G1 X52.231 Y47.963 E17.23179
G1 X52.346 Y47.927 E17.2358
G1 X53.123 Y47.721 E17.26254
G1 X53.238 Y47.695 E17.26646
G1 X54.035 Y47.554 E17.29338
G1 X54.158 Y47.538 E17.2975
G1 X54.943 Y47.47 E17.32371
G1 X55.016 Y47.466 E17.32614
G1 X55.455 Y47.451 E17.34075
G1 X55.498 Y47.45 E17.34218
G1 X56.331 Y47.447 E17.36989
G1 X56.338 Y47.447 E17.37012
G1 X58.68 Y47.451 E17.44802
G1 X59.012 Y47.491 E17.45914
G1 X59.362 Y47.629 E17.47165
G1 X59.537 Y47.727 E17.47832
G1 X59.807 Y47.924 E17.48944
G1 X60.023 Y48.18 E17.50058
G1 X60.11 Y48.353 E17.50702
G1 X62.867 Y48.362 E17.59872
G1 X96.215 Y48.361 E18.70788
G1 X96.299 Y48.192 E18.71416
G1 X96.515 Y47.936 E18.7253
G1 X96.784 Y47.74 E18.73637
G1 X96.971 Y47.635 E18.7435
G1 X97.279 Y47.508 E18.75458
G1 X97.656 Y47.456 E18.76724
G1 X158.192 Y47.457 E20.78067
G1 X165.528 Y47.448 E21.02467
G1 X165.569 Y47.449 E21.02603
G1 X165.932 Y47.459 E21.03811
G1 X166.005 Y47.462 E21.04054
G1 X166.803 Y47.526 E21.06717
G1 X166.921 Y47.541 E21.07113
G1 X167.721 Y47.674 E21.0981
G1 X167.837 Y47.698 E21.10204
G1 X168.622 Y47.898 E21.12898
G1 X168.739 Y47.934 E21.13305
G1 X169.506 Y48.203 E21.16009
G1 X169.612 Y48.245 E21.16388
G1 X170.323 Y48.561 E21.18976
G1 X170.431 Y48.615 E21.19377
G1 X171.157 Y49.016 E21.22136
G1 X171.258 Y49.077 E21.22528
G1 X171.936 Y49.53 E21.2524
G1 X172.032 Y49.6 E21.25636
G1 X172.654 Y50.097 E21.28284
G1 X172.745 Y50.177 E21.28687
G1 X173.35 Y50.753 E21.31465
G1 X173.432 Y50.838 E21.31858
G1 X173.934 Y51.404 E21.34374
G1 X174.006 Y51.492 E21.34752
G1 X174.504 Y52.155 E21.3751
G1 X174.574 Y52.256 E21.37919
G1 X175.002 Y52.944 E21.40614
G1 X175.06 Y53.048 E21.4101
G1 X175.438 Y53.789 E21.43777
G1 X175.488 Y53.897 E21.44173
G1 X175.778 Y54.609 E21.4673
G1 X175.818 Y54.722 E21.47128
G1 X176.066 Y55.521 E21.49911
G1 X176.095 Y55.63 E21.50286
G1 X176.266 Y56.394 E21.5289
G1 X176.288 Y56.516 E21.53302
G1 X176.396 Y57.33 E21.56033
G1 X176.406 Y57.449 E21.56431
G1 X176.444 Y58.264 E21.59144
G1 X176.446 Y58.322 E21.59337
G1 X176.45 Y59.154 E21.62104
G1 X176.45 Y59.163 E21.62134
G1 X176.447 Y60.922 E21.67985
G1 X176.407 Y61.254 E21.69097
G1 X176.264 Y61.612 E21.70379
G1 X176.165 Y61.786 E21.71045
G1 X175.966 Y62.055 E21.72158
G1 X175.71 Y62.269 E21.73268
G1 X175.546 Y62.349 E21.73875
G1 X175.536 Y65.705 E21.85037
G1 X175.537 Y99.055 E22.95959
G1 X175.707 Y99.14 E22.96592
G1 X175.963 Y99.356 E22.97706
G1 X176.158 Y99.623 E22.98805
G1 X176.261 Y99.806 E22.99504
G1 X176.389 Y100.115 E23.00616
G1 X176.441 Y100.493 E23.01885
G1 X176.44 Y161.036 E25.03252
G1 X176.449 Y168.357 E25.27602
G1 X176.448 Y168.417 E25.27801
G1 X176.416 Y169.185 E25.30358
G1 X176.407 Y169.297 E25.30732
G1 X176.311 Y170.08 E25.33356
G1 X176.291 Y170.199 E25.33757
G1 X176.125 Y170.987 E25.36435
G1 X176.097 Y171.097 E25.36813
G1 X175.859 Y171.897 E25.39589
G1 X175.819 Y172.014 E25.4
G1 X175.519 Y172.771 E25.42708
G1 X175.47 Y172.88 E25.43106
G1 X175.112 Y173.597 E25.45771
G1 X175.055 Y173.699 E25.4616
G1 X174.638 Y174.385 E25.4883
G1 X174.571 Y174.487 E25.49236
G1 X174.096 Y175.134 E25.51906
G1 X174.025 Y175.222 E25.52282
G1 X173.496 Y175.832 E25.54967
G1 X173.408 Y175.925 E25.55393
G1 X172.83 Y176.48 E25.58058
G1 X172.748 Y176.552 E25.58421
G1 X172.102 Y177.082 E25.612
G1 X172.006 Y177.154 E25.616
G1 X171.359 Y177.598 E25.64209
G1 X171.254 Y177.664 E25.64622
G1 X170.551 Y178.06 E25.67306
G1 X170.448 Y178.113 E25.67691
G1 X169.746 Y178.435 E25.7026
G1 X169.64 Y178.478 E25.7064
G1 X168.833 Y178.771 E25.73496
G1 X168.713 Y178.808 E25.73913
G1 X167.935 Y179.014 E25.7659
G1 X167.82 Y179.04 E25.76982
G1 X167.024 Y179.18 E25.7967
G1 X166.904 Y179.196 E25.80073
G1 X166.124 Y179.265 E25.82677
G1 X166.048 Y179.269 E25.82931
G1 X165.601 Y179.284 E25.84418
G1 X165.559 Y179.285 E25.84558
G1 X164.729 Y179.288 E25.87318
G1 X164.722 Y179.288 E25.87342
G1 X162.38 Y179.284 E25.95131
G1 X162.048 Y179.244 E25.96244
G1 X161.698 Y179.106 E25.97495
G1 X161.523 Y179.008 E25.98162
G1 X161.253 Y178.811 E25.99274
G1 X161.037 Y178.555 E26.00388
G1 X160.95 Y178.382 E26.01032
G1 X158.193 Y178.373 E26.10202
G1 X121.194 Y178.374 E27.33261
G1 X121.11 Y178.543 E27.33888
G1 X120.894 Y178.799 E27.35002
G1 X120.626 Y178.994 E27.36105
G1 X120.441 Y179.098 E27.36811
G1 X120.132 Y179.226 E27.37923
G1 X119.755 Y179.278 E27.39189
G1 X62.868 Y179.278 E29.28396
G1 X57.427 Y179.285 E29.46493
G1 X55.532 Y179.287 E29.52796
G1 X55.492 Y179.286 E29.52929
G1 X55.128 Y179.276 E29.5414
G1 X55.054 Y179.273 E29.54386
G1 X54.257 Y179.209 E29.57045
G1 X54.139 Y179.194 E29.57441
G1 X53.339 Y179.061 E29.60138
G1 X53.223 Y179.037 E29.60532
G1 X52.446 Y178.839 E29.63199
G1 X52.327 Y178.802 E29.63614
G1 X51.552 Y178.529 E29.66347
G1 X51.452 Y178.49 E29.66704
G1 X50.722 Y178.168 E29.69357
G1 X50.609 Y178.112 E29.69777
G1 X49.905 Y177.722 E29.72454
G1 X49.805 Y177.661 E29.72843
G1 X49.121 Y177.204 E29.75579
G1 X49.025 Y177.134 E29.75974
G1 X48.409 Y176.642 E29.78597
G1 X48.318 Y176.562 E29.79
G1 X47.714 Y175.987 E29.81773
G1 X47.631 Y175.902 E29.82168
G1 X47.115 Y175.32 E29.84755
G1 X47.042 Y175.23 E29.85141
G1 X46.549 Y174.571 E29.87878
G1 X46.48 Y174.469 E29.88288
G1 X46.048 Y173.771 E29.91018
G1 X45.991 Y173.67 E29.91404
G1 X45.624 Y172.95 E29.94092
G1 X45.574 Y172.842 E29.94487
G1 X45.277 Y172.113 E29.97106
G1 X45.237 Y172.001 E29.97501
G1 X44.993 Y171.216 E30.00235
G1 X44.962 Y171.1 E30.00635
G1 X44.789 Y170.311 E30.03321
G1 X44.769 Y170.196 E30.03709
G1 X44.664 Y169.41 E30.06347
G1 X44.653 Y169.289 E30.06751
G1 X44.615 Y168.462 E30.09504
G1 X44.614 Y168.405 E30.09694
G1 X44.61 Y167.581 E30.12435
G1 X44.61 Y167.572 E30.12465
G1 X44.612 Y166.079 E30.1743
G1 X44.652 Y165.747 E30.18543
G1 X44.794 Y165.39 E30.19821
G1 X44.895 Y165.212 E30.20501
G1 X45.094 Y164.943 E30.21614
G1 X45.35 Y164.729 E30.22724
G1 X45.513 Y164.649 E30.23328
G1 X45.524 Y161.03 E30.35365
G1 X45.523 Y126.178 E31.51283
G1 X45.353 Y126.093 E31.51915
G1 X45.097 Y125.877 E31.53029
G1 X44.902 Y125.61 E31.54129
G1 X44.799 Y125.427 E31.54827
G1 X44.671 Y125.118 E31.5594
G1 X44.619 Y124.74 E31.57209
G1 X44.62 Y65.699 E33.5358
G1 X44.611 Y58.369 E33.7796
G1 X44.612 Y58.307 E33.78166
G1 X44.645 Y57.537 E33.80729
G1 X44.655 Y57.425 E33.81103
G1 X44.75 Y56.656 E33.8368
G1 X44.769 Y56.542 E33.84065
G1 X44.933 Y55.756 E33.86735
G1 X44.961 Y55.643 E33.87123
G1 X45.192 Y54.866 E33.89819
G1 X45.231 Y54.752 E33.90219
G1 X45.53 Y53.992 E33.92936
G1 X45.577 Y53.886 E33.93321
G1 X45.929 Y53.172 E33.95969
G1 X45.988 Y53.065 E33.96375
G1 X46.422 Y52.35 E33.99157
G1 X46.49 Y52.249 E33.99562
G1 X46.969 Y51.595 E34.02259
G1 X47.043 Y51.502 E34.02654
G1 X47.569 Y50.899 E34.05315
G1 X47.651 Y50.812 E34.05713
G1 X48.239 Y50.244 E34.08432
G0 F6000 X48.517 Y50.532
G1 F1200 X48.58 Y50.476 E34.08712
G1 X49.193 Y49.976 E34.11343
G1 X49.26 Y49.926 E34.11622
G1 X49.935 Y49.464 E34.14342
G1 X50.008 Y49.419 E34.14627
G1 X50.696 Y49.03 E34.17256
G1 X50.768 Y48.992 E34.17527
G1 X51.49 Y48.658 E34.20173
G1 X51.571 Y48.625 E34.20464
G1 X52.366 Y48.339 E34.23274
G1 X52.449 Y48.313 E34.23563
G1 X53.226 Y48.107 E34.26237
G1 X53.308 Y48.089 E34.26516
G1 X54.105 Y47.948 E34.29208
G1 X54.193 Y47.937 E34.29503
G1 X54.978 Y47.869 E34.32123
G1 X55.03 Y47.866 E34.32297
G1 X55.469 Y47.851 E34.33758
G1 X55.499 Y47.85 E34.33858
G1 X56.332 Y47.847 E34.36628
G1 X56.338 Y47.847 E34.36648
G1 X58.68 Y47.851 E34.44438
G1 X58.959 Y47.891 E34.45375
G1 X59.167 Y47.978 E34.46125
G1 X59.342 Y48.076 E34.46792
G1 X59.566 Y48.248 E34.47731
G1 X59.733 Y48.475 E34.48669
G1 X59.831 Y48.739 E34.49605
