;FLAVOR:Marlin
;TIME:13002
;Filament used: 6.75936m
;Layer height: 0.2
;MINX:60.5
;MINY:58
;MINZ:0.25
;MAXX:159.5
;MAXY:162
;MAXZ:12.85
;Generated with Cura_SteamEngine 4.4.1
M140 S60
M105
M190 S60
M104 S200
M105
M109 S200
M82 ;absolute extrusion mode
M201 X500.00 Y500.00 Z100.00 E5000.00 ;Setup machine max acceleration
M203 X500.00 Y500.00 Z10.00 E50.00 ;Setup machine max feedrate
M204 P500.00 R1000.00 T500.00 ;Setup Print/Retract/Travel acceleration
M205 X8.00 Y8.00 Z0.40 E5.00 ;Setup Jerk
M220 S100 ;Reset Feedrate
M221 S100 ;Reset Flowrate

G28 ;Home

G92 E0 ;Reset Extruder
G1 Z2.0 F3000 ;Move Z Axis up
G1 X10.1 Y20 Z0.28 F5000.0 ;Move to start position
G1 X10.1 Y200.0 Z0.28 F1500.0 E15 ;Draw the first line
G1 X10.4 Y200.0 Z0.28 F5000.0 ;Move to side a little
G1 X10.4 Y20 Z0.28 F1500.0 E30 ;Draw the second line
G92 E0 ;Reset Extruder
G1 Z2.0 F3000 ;Move Z Axis up

G92 E0
G92 E0
G1 F1500 E-6.5
;LAYER_COUNT:64
;LAYER:0
M107
G0 F6000 X63.71 Y61.252 Z0.25
;TYPE:SKIRT
G1 F1500 E0
G1 F1200 X64.399 Y60.616 E0.03898
G1 X65.14 Y60.041 E0.07798
G1 X65.927 Y59.531 E0.11697
G1 X66.755 Y59.09 E0.15597
G1 X67.617 Y58.721 E0.19495
G1 X68.508 Y58.427 E0.23396
G1 X69.42 Y58.209 E0.27295
G1 X70.347 Y58.071 E0.31191
G1 X71.201 Y58.013 E0.3475
G1 X71.521 Y58.004 E0.36081
G1 X71.83 Y58 E0.37365
G1 X82.771 Y58 E0.82853
G1 X82.928 Y58.001 E0.83506
G1 X84.257 Y58.02 E0.89032
G1 X86.897 Y58.02 E1.00007
G1 X87.588 Y58.005 E1.02881
G1 X87.734 Y58.002 E1.03488
G1 X87.97 Y58 E1.04469
G1 X99.021 Y58 E1.50414
G1 X99.178 Y58.001 E1.51067
G1 X100.507 Y58.02 E1.56593
G1 X103.148 Y58.02 E1.67573
G1 X104.106 Y58.002 E1.71556
G1 X104.313 Y58 E1.72417
G1 X115.271 Y58 E2.17975
G1 X115.428 Y58.001 E2.18628
G1 X116.757 Y58.02 E2.24154
G1 X119.398 Y58.02 E2.35134
G1 X120.356 Y58.002 E2.39117
G1 X120.563 Y58 E2.39978
G1 X131.521 Y58 E2.85536
G1 X131.678 Y58.001 E2.86189
G1 X133.007 Y58.02 E2.91715
G1 X135.648 Y58.02 E3.02695
G1 X136.606 Y58.002 E3.06678
G1 X136.813 Y58 E3.07539
G1 X147.793 Y58 E3.53188
G1 X147.951 Y58.001 E3.53845
G1 X148.649 Y58.011 E3.56747
G1 X149.585 Y58.065 E3.60645
G1 X150.513 Y58.197 E3.64542
G1 X151.427 Y58.409 E3.68443
G1 X152.319 Y58.698 E3.72342
G1 X153.184 Y59.061 E3.76242
G1 X154.014 Y59.497 E3.80139
G1 X154.805 Y60.002 E3.84041
G1 X155.549 Y60.573 E3.8794
G1 X156.242 Y61.205 E3.9184
G1 X156.879 Y61.893 E3.95738
G1 X157.454 Y62.634 E3.99637
G1 X157.965 Y63.42 E4.03535
G1 X158.407 Y64.248 E4.07437
G1 X158.776 Y65.11 E4.11335
G1 X159.071 Y66 E4.15234
G1 X159.289 Y66.912 E4.19132
G1 X159.429 Y67.84 E4.23034
G1 X159.487 Y68.701 E4.26622
G1 X159.496 Y69.021 E4.27953
G1 X159.5 Y69.33 E4.29237
G1 X159.5 Y80.274 E4.74737
G1 X159.499 Y80.428 E4.75378
G1 X159.472 Y82.372 E4.83461
G1 X159.466 Y85.055 E4.94615
G1 X159.498 Y86.607 E5.01069
G1 X159.5 Y86.837 E5.02025
G1 X159.5 Y97.774 E5.47496
G1 X159.499 Y97.928 E5.48136
G1 X159.472 Y99.872 E5.56219
G1 X159.466 Y102.555 E5.67374
G1 X159.498 Y104.107 E5.73828
G1 X159.5 Y104.337 E5.74784
G1 X159.5 Y115.274 E6.20255
G1 X159.499 Y115.428 E6.20895
G1 X159.472 Y117.372 E6.28978
G1 X159.466 Y120.055 E6.40133
G1 X159.498 Y121.607 E6.46587
G1 X159.5 Y121.837 E6.47543
G1 X159.5 Y132.774 E6.93014
G1 X159.499 Y132.928 E6.93654
G1 X159.472 Y134.872 E7.01737
G1 X159.466 Y137.555 E7.12891
G1 X159.498 Y139.107 E7.19345
G1 X159.5 Y139.337 E7.20302
G1 X159.5 Y150.264 E7.65731
G1 X159.499 Y150.415 E7.66359
G1 X159.489 Y151.142 E7.69381
G1 X159.436 Y152.079 E7.73283
G1 X159.304 Y153.007 E7.7718
G1 X159.093 Y153.921 E7.8108
G1 X158.804 Y154.813 E7.84978
G1 X158.441 Y155.678 E7.88878
G1 X158.006 Y156.509 E7.92778
G1 X157.501 Y157.299 E7.96676
G1 X156.931 Y158.044 E8.00576
G1 X156.3 Y158.738 E8.04476
G1 X155.611 Y159.375 E8.08377
G1 X154.871 Y159.951 E8.12276
G1 X154.085 Y160.462 E8.16173
G1 X153.258 Y160.904 E8.20072
G1 X152.396 Y161.274 E8.23972
G1 X151.506 Y161.569 E8.2787
G1 X150.594 Y161.788 E8.3177
G1 X149.667 Y161.928 E8.35667
G1 X148.799 Y161.987 E8.39284
G1 X148.479 Y161.996 E8.40615
G1 X148.17 Y162 E8.419
G1 X137.229 Y162 E8.87387
G1 X137.072 Y161.999 E8.8804
G1 X135.743 Y161.98 E8.93566
G1 X133.103 Y161.98 E9.04542
G1 X132.144 Y161.998 E9.0853
G1 X131.937 Y162 E9.0939
G1 X120.979 Y162 E9.54948
G1 X120.822 Y161.999 E9.55601
G1 X119.493 Y161.98 E9.61127
G1 X116.853 Y161.98 E9.72103
G1 X115.894 Y161.998 E9.76091
G1 X115.687 Y162 E9.76951
G1 X104.729 Y162 E10.22509
G1 X104.572 Y161.999 E10.23162
G1 X103.243 Y161.98 E10.28688
G1 X100.603 Y161.98 E10.39664
G1 X99.644 Y161.998 E10.43652
G1 X99.437 Y162 E10.44512
G1 X88.479 Y162 E10.9007
G1 X88.322 Y161.999 E10.90723
G1 X86.993 Y161.98 E10.96249
G1 X84.353 Y161.98 E11.07225
G1 X83.394 Y161.998 E11.11213
G1 X83.187 Y162 E11.12073
G1 X72.207 Y162 E11.57723
G1 X72.065 Y161.999 E11.58313
G1 X71.367 Y161.99 E11.61215
G1 X70.431 Y161.938 E11.65113
G1 X69.502 Y161.806 E11.69014
G1 X68.588 Y161.596 E11.72913
G1 X67.695 Y161.309 E11.76813
G1 X66.83 Y160.946 E11.80713
G1 X65.999 Y160.512 E11.8461
G1 X65.208 Y160.008 E11.8851
G1 X64.463 Y159.438 E11.9241
G1 X63.769 Y158.807 E11.96309
G1 X63.132 Y158.12 E12.00204
G1 X62.555 Y157.38 E12.04106
G1 X62.043 Y156.594 E12.08006
G1 X61.6 Y155.767 E12.11906
G1 X61.229 Y154.906 E12.15804
G1 X60.933 Y154.016 E12.19703
G1 X60.714 Y153.104 E12.23603
G1 X60.573 Y152.177 E12.27501
G1 X60.513 Y151.288 E12.31206
G1 X60.504 Y150.955 E12.32591
G1 X60.5 Y150.658 E12.33825
G1 X60.5 Y139.707 E12.79354
G1 X60.501 Y139.553 E12.79995
G1 X60.528 Y137.616 E12.88049
G1 X60.534 Y134.911 E12.99295
G1 X60.502 Y133.393 E13.05607
G1 X60.5 Y133.163 E13.06564
G1 X60.5 Y122.207 E13.52113
G1 X60.501 Y122.053 E13.52754
G1 X60.528 Y120.116 E13.60807
G1 X60.534 Y117.411 E13.72054
G1 X60.502 Y115.893 E13.78366
G1 X60.5 Y115.663 E13.79322
G1 X60.5 Y104.707 E14.24872
G1 X60.501 Y104.553 E14.25512
G1 X60.528 Y102.616 E14.33566
G1 X60.534 Y99.911 E14.44812
G1 X60.502 Y98.393 E14.51125
G1 X60.5 Y98.163 E14.52081
G1 X60.5 Y87.207 E14.97631
G1 X60.501 Y87.053 E14.98271
G1 X60.528 Y85.116 E15.06325
G1 X60.534 Y82.411 E15.17571
G1 X60.502 Y80.893 E15.23884
G1 X60.5 Y80.663 E15.2484
G1 X60.5 Y69.674 E15.70527
G1 X60.501 Y69.509 E15.71213
G1 X60.511 Y68.844 E15.73978
G1 X60.565 Y67.907 E15.7788
G1 X60.699 Y66.979 E15.81778
G1 X60.911 Y66.065 E15.85679
G1 X61.2 Y65.173 E15.89577
G1 X61.565 Y64.309 E15.93477
G1 X62.001 Y63.479 E15.97375
G1 X62.507 Y62.689 E16.01275
G1 X63.078 Y61.945 E16.05174
G1 X63.71 Y61.252 E16.09074
G0 F6000 X64.102 Y61.427
G1 F1200 X64.788 Y60.813 E16.12901
G1 X65.524 Y60.261 E16.16726
G1 X66.306 Y59.774 E16.20556
G1 X67.127 Y59.358 E16.24383
G1 X67.981 Y59.014 E16.2821
G1 X68.861 Y58.745 E16.32036
G1 X69.762 Y58.554 E16.35865
G1 X70.676 Y58.442 E16.39694
G1 X71.212 Y58.413 E16.41925
G1 X71.532 Y58.404 E16.43256
G1 X71.83 Y58.4 E16.44495
G1 X82.771 Y58.4 E16.89983
G1 X82.923 Y58.401 E16.90615
G1 X84.252 Y58.42 E16.96141
G1 X86.86 Y58.42 E17.06983
G1 X87.597 Y58.404 E17.10048
G1 X87.737 Y58.402 E17.1063
G1 X87.973 Y58.4 E17.11612
G1 X99.021 Y58.4 E17.57544
G1 X99.173 Y58.401 E17.58176
G1 X100.502 Y58.42 E17.63702
G1 X103.156 Y58.42 E17.74736
G1 X104.114 Y58.402 E17.78719
G1 X104.313 Y58.4 E17.79547
G1 X115.271 Y58.4 E18.25105
G1 X115.423 Y58.401 E18.25737
G1 X116.752 Y58.42 E18.31263
G1 X119.406 Y58.42 E18.42297
G1 X120.364 Y58.402 E18.4628
G1 X120.563 Y58.4 E18.47108
G1 X131.521 Y58.4 E18.92666
G1 X131.673 Y58.401 E18.93298
G1 X133.002 Y58.42 E18.98824
G1 X135.656 Y58.42 E19.09858
G1 X136.614 Y58.402 E19.13841
G1 X136.813 Y58.4 E19.14669
G1 X147.793 Y58.4 E19.60318
G1 X147.945 Y58.401 E19.6095
G1 X148.643 Y58.411 E19.63852
G1 X149.562 Y58.464 E19.6768
G1 X150.473 Y58.597 E19.71507
G1 X151.369 Y58.808 E19.75334
G1 X152.243 Y59.096 E19.7916
G1 X153.09 Y59.459 E19.82991
G1 X153.901 Y59.894 E19.86817
G1 X154.671 Y60.398 E19.90644
G1 X155.395 Y60.967 E19.94472
G1 X156.067 Y61.597 E19.98302
G1 X156.682 Y62.282 E20.02129
G1 X157.235 Y63.018 E20.05956
G1 X157.722 Y63.799 E20.09783
G1 X158.139 Y64.62 E20.13611
G1 X158.484 Y65.474 E20.1744
G1 X158.753 Y66.354 E20.21266
G1 X158.945 Y67.255 E20.25096
G1 X159.058 Y68.168 E20.28921
G1 X159.087 Y68.712 E20.31186
G1 X159.096 Y69.032 E20.32517
G1 X159.1 Y69.33 E20.33756
G1 X159.1 Y80.274 E20.79256
G1 X159.099 Y80.422 E20.79871
G1 X159.072 Y82.365 E20.8795
G1 X159.066 Y85.098 E20.99312
G1 X159.098 Y86.616 E21.05625
G1 X159.1 Y86.837 E21.06544
G1 X159.1 Y97.774 E21.52015
G1 X159.099 Y97.922 E21.5263
G1 X159.072 Y99.865 E21.60709
G1 X159.066 Y102.598 E21.72071
G1 X159.098 Y104.116 E21.78384
G1 X159.1 Y104.337 E21.79303
G1 X159.1 Y115.274 E22.24773
G1 X159.099 Y115.422 E22.25389
G1 X159.072 Y117.365 E22.33468
G1 X159.066 Y120.098 E22.4483
G1 X159.098 Y121.616 E22.51143
G1 X159.1 Y121.837 E22.52061
G1 X159.1 Y132.774 E22.97532
G1 X159.099 Y132.922 E22.98147
G1 X159.072 Y134.865 E23.06226
G1 X159.066 Y137.598 E23.17589
G1 X159.098 Y139.116 E23.23901
G1 X159.1 Y139.337 E23.2482
G1 X159.1 Y150.264 E23.70249
G1 X159.099 Y150.41 E23.70856
G1 X159.089 Y151.137 E23.73879
G1 X159.036 Y152.056 E23.77706
G1 X158.904 Y152.967 E23.81533
G1 X158.693 Y153.863 E23.8536
G1 X158.406 Y154.738 E23.89189
G1 X158.043 Y155.584 E23.93016
G1 X157.609 Y156.396 E23.96844
G1 X157.105 Y157.167 E24.00674
G1 X156.537 Y157.891 E24.04499
G1 X155.908 Y158.563 E24.08326
G1 X155.223 Y159.178 E24.12154
G1 X154.487 Y159.731 E24.15981
G1 X153.706 Y160.219 E24.1981
G1 X152.886 Y160.637 E24.23636
G1 X152.032 Y160.982 E24.27466
G1 X151.152 Y161.251 E24.31291
G1 X150.251 Y161.444 E24.35122
G1 X149.338 Y161.557 E24.38947
G1 X148.788 Y161.587 E24.41237
G1 X148.468 Y161.596 E24.42568
G1 X148.17 Y161.6 E24.43807
G1 X137.229 Y161.6 E24.89294
G1 X137.077 Y161.599 E24.89926
G1 X135.748 Y161.58 E24.95452
G1 X133.095 Y161.58 E25.06482
G1 X132.136 Y161.598 E25.1047
G1 X131.937 Y161.6 E25.11297
G1 X120.979 Y161.6 E25.56855
G1 X120.827 Y161.599 E25.57487
G1 X119.498 Y161.58 E25.63013
G1 X116.845 Y161.58 E25.74043
G1 X115.886 Y161.598 E25.78031
G1 X115.687 Y161.6 E25.78858
G1 X104.729 Y161.6 E26.24416
G1 X104.577 Y161.599 E26.25048
G1 X103.248 Y161.58 E26.30574
G1 X100.595 Y161.58 E26.41604
G1 X99.636 Y161.598 E26.45592
G1 X99.437 Y161.6 E26.46419
G1 X88.479 Y161.6 E26.91977
G1 X88.327 Y161.599 E26.92609
G1 X86.998 Y161.58 E26.98135
G1 X84.345 Y161.58 E27.09165
G1 X83.386 Y161.598 E27.13153
G1 X83.187 Y161.6 E27.1398
G1 X72.207 Y161.6 E27.5963
G1 X72.07 Y161.599 E27.60199
G1 X71.372 Y161.59 E27.63102
G1 X70.453 Y161.538 E27.66928
G1 X69.542 Y161.407 E27.70755
G1 X68.646 Y161.197 E27.74581
G1 X67.771 Y160.91 E27.78409
G1 X66.924 Y160.548 E27.82239
G1 X66.112 Y160.114 E27.86067
G1 X65.341 Y159.612 E27.89892
G1 X64.616 Y159.044 E27.93721
G1 X63.943 Y158.415 E27.97551
G1 X63.328 Y157.731 E28.01375
G1 X62.774 Y156.996 E28.05202
G1 X62.286 Y156.215 E28.0903
G1 X61.867 Y155.395 E28.12859
G1 X61.521 Y154.542 E28.16686
G1 X61.251 Y153.662 E28.20513
G1 X61.058 Y152.761 E28.24344
G1 X60.944 Y151.848 E28.28169
G1 X60.913 Y151.277 E28.30546
G1 X60.904 Y150.944 E28.31931
G1 X60.9 Y150.658 E28.3312
G1 X60.9 Y139.707 E28.78649
G1 X60.901 Y139.558 E28.79269
G1 X60.928 Y137.622 E28.87319
G1 X60.934 Y134.903 E28.98623
G1 X60.902 Y133.384 E29.0494
G1 X60.9 Y133.163 E29.05859
G1 X60.9 Y122.207 E29.51408
G1 X60.901 Y122.058 E29.52028
G1 X60.928 Y120.122 E29.60077
G1 X60.934 Y117.403 E29.71382
G1 X60.902 Y115.884 E29.77698
G1 X60.9 Y115.663 E29.78617
G1 X60.9 Y104.707 E30.24167
G1 X60.901 Y104.558 E30.24787
G1 X60.928 Y102.622 E30.32836
G1 X60.934 Y99.903 E30.44141
G1 X60.902 Y98.384 E30.50457
G1 X60.9 Y98.163 E30.51376
G1 X60.9 Y87.207 E30.96926
G1 X60.901 Y87.058 E30.97545
G1 X60.928 Y85.122 E31.05595
G1 X60.934 Y82.403 E31.16899
G1 X60.902 Y80.884 E31.23216
G1 X60.9 Y80.663 E31.24135
G1 X60.9 Y69.674 E31.69822
G1 X60.901 Y69.515 E31.70483
G1 X60.911 Y68.85 E31.73248
G1 X60.965 Y67.931 E31.77075
G1 X61.098 Y67.02 E31.80903
G1 X61.31 Y66.124 E31.84731
G1 X61.599 Y65.249 E31.88562
G1 X61.963 Y64.404 E31.92387
G1 X62.398 Y63.593 E31.96213
G1 X62.903 Y62.822 E32.00045
G1 X63.472 Y62.099 E32.0387
G1 X64.102 Y61.427 E32.077
G0 F6000 X64.493 Y61.606
G1 F1200 X65.175 Y61.014 E32.11455
G1 X65.907 Y60.485 E32.15209
G1 X66.683 Y60.023 E32.18964
G1 X67.497 Y59.632 E32.22719
G1 X68.342 Y59.313 E32.26474
G1 X69.212 Y59.071 E32.30228
G1 X70.1 Y58.907 E32.33982
G1 X71.223 Y58.813 E32.38668
G1 X71.543 Y58.804 E32.39999
G1 X71.83 Y58.8 E32.41192
G1 X82.771 Y58.8 E32.86679
G1 X82.917 Y58.801 E32.87286
G1 X84.246 Y58.82 E32.92812
G1 X86.869 Y58.82 E33.03717
G1 X87.606 Y58.804 E33.06782
G1 X87.741 Y58.802 E33.07343
G1 X87.977 Y58.8 E33.08325
G1 X99.021 Y58.8 E33.5424
G1 X99.167 Y58.801 E33.54847
G1 X100.496 Y58.82 E33.60373
G1 X103.163 Y58.82 E33.71461
G1 X104.121 Y58.802 E33.75445
G1 X104.313 Y58.8 E33.76243
G1 X115.271 Y58.8 E34.21801
G1 X115.417 Y58.801 E34.22408
G1 X116.746 Y58.82 E34.27934
G1 X119.413 Y58.82 E34.39022
G1 X120.371 Y58.802 E34.43006
G1 X120.563 Y58.8 E34.43804
G1 X131.521 Y58.8 E34.89362
G1 X131.667 Y58.801 E34.89969
G1 X132.996 Y58.82 E34.95495
G1 X135.663 Y58.82 E35.06583
G1 X136.621 Y58.802 E35.10567
G1 X136.813 Y58.8 E35.11365
G1 X147.793 Y58.8 E35.57015
G1 X147.939 Y58.801 E35.57622
G1 X148.637 Y58.811 E35.60524
G1 X149.539 Y58.864 E35.6428
G1 X150.432 Y58.996 E35.68034
G1 X151.31 Y59.207 E35.71788
G1 X152.166 Y59.495 E35.75543
G1 X152.993 Y59.857 E35.79296
G1 X153.785 Y60.292 E35.83053
G1 X154.536 Y60.794 E35.86808
G1 X155.239 Y61.361 E35.90563
G1 X155.889 Y61.988 E35.94318
G1 X156.481 Y62.67 E35.98072
G1 X157.011 Y63.401 E36.01826
G1 X157.473 Y64.177 E36.05581
G1 X157.866 Y64.99 E36.09335
G1 X158.184 Y65.835 E36.13089
G1 X158.427 Y66.705 E36.16844
G1 X158.592 Y67.593 E36.206
G1 X158.687 Y68.723 E36.25314
G1 X158.696 Y69.043 E36.26645
G1 X158.7 Y69.33 E36.27838
G1 X158.7 Y80.274 E36.73338
G1 X158.699 Y80.416 E36.73929
G1 X158.672 Y82.358 E36.82003
G1 X158.666 Y85.105 E36.93424
G1 X158.698 Y86.624 E36.99741
G1 X158.7 Y86.837 E37.00626
G1 X158.7 Y97.774 E37.46097
G1 X158.699 Y97.916 E37.46687
G1 X158.672 Y99.858 E37.54762
G1 X158.666 Y102.605 E37.66183
G1 X158.698 Y104.124 E37.72499
G1 X158.7 Y104.337 E37.73385
G1 X158.7 Y115.274 E38.18856
G1 X158.699 Y115.416 E38.19446
G1 X158.672 Y117.358 E38.27521
G1 X158.666 Y120.105 E38.38942
G1 X158.698 Y121.624 E38.45258
G1 X158.7 Y121.837 E38.46144
G1 X158.7 Y132.774 E38.91615
G1 X158.699 Y132.916 E38.92205
G1 X158.672 Y134.858 E39.0028
G1 X158.666 Y137.605 E39.117
G1 X158.698 Y139.124 E39.18017
G1 X158.7 Y139.337 E39.18903
G1 X158.7 Y150.264 E39.64332
G1 X158.699 Y150.404 E39.64914
G1 X158.689 Y151.131 E39.67937
G1 X158.637 Y152.033 E39.71693
G1 X158.505 Y152.926 E39.75446
G1 X158.294 Y153.805 E39.79204
G1 X158.007 Y154.661 E39.82958
G1 X157.645 Y155.488 E39.86711
G1 X157.211 Y156.28 E39.90466
G1 X156.709 Y157.031 E39.94221
G1 X156.143 Y157.734 E39.97974
G1 X155.516 Y158.385 E40.01731
G1 X154.835 Y158.977 E40.05483
G1 X154.104 Y159.507 E40.09237
G1 X153.328 Y159.97 E40.12994
G1 X152.515 Y160.363 E40.16748
G1 X151.67 Y160.683 E40.20505
G1 X150.801 Y160.926 E40.24256
G1 X149.913 Y161.091 E40.28011
G1 X148.777 Y161.187 E40.32751
G1 X148.457 Y161.196 E40.34082
G1 X148.17 Y161.2 E40.35275
G1 X137.229 Y161.2 E40.80763
G1 X137.083 Y161.199 E40.8137
G1 X135.754 Y161.18 E40.86895
G1 X133.088 Y161.18 E40.97979
G1 X132.129 Y161.198 E41.01967
G1 X131.937 Y161.2 E41.02765
G1 X120.979 Y161.2 E41.48323
G1 X120.833 Y161.199 E41.4893
G1 X119.504 Y161.18 E41.54456
G1 X116.838 Y161.18 E41.6554
G1 X115.879 Y161.198 E41.69528
G1 X115.687 Y161.2 E41.70326
G1 X104.729 Y161.2 E42.15884
G1 X104.583 Y161.199 E42.16491
